Obsidian-SemiLight/actions/22s/format-border-set-diagonal-bl-tr.svg

<svg viewBox="0 0 22 22" xmlns="http://www.w3.org/2000/svg"><g fill="#4d4d4d"><path d="m3 2v1 7 1 7 1h8 1 8v-1-16h-8-1zm1 1h7v7h-7zm8 0h7v7h-7zm-8 8h7v7h-7zm8 0h7v7h-7z" fill-opacity=".1"/><path d="m4 3v7h7v-7zm8 0v6.2929688l6.292969-6.2929688zm7 .7070312-6.292969 6.2929688h6.292969zm-15 7.2929688v6.292969l6.292969-6.292969zm8 0v7h7v-7zm-1 .707031-6.2929688 6.292969h6.2929688z" fill-opacity=".5"/><path d="m19.292969 2-16.292969 16.292969v.707031h.7070312l16.2929688-16.2929688v-.7070312z"/></g></svg>

<svg xmlns="http://www.w3.org/2000/svg" viewBox="0 0 22 22">
  <defs id="defs3051">
    <style type="text/css" id="current-color-scheme">
      .ColorScheme-Text {
        color:#4d4d4d;
      }
      </style>
  </defs>
 <path 
     style="fill:currentColor;fill-opacity:0.1;stroke:none" 
     d="M 3 2 L 3 3 L 3 10 L 3 11 L 3 18 L 3 19 L 11 19 L 12 19 L 20 19 L 20 18 L 20 2 L 12 2 L 11 2 L 3 2 z M 4 3 L 11 3 L 11 10 L 4 10 L 4 3 z M 12 3 L 19 3 L 19 10 L 12 10 L 12 3 z M 4 11 L 11 11 L 11 18 L 4 18 L 4 11 z M 12 11 L 19 11 L 19 18 L 12 18 L 12 11 z "
     class="ColorScheme-Text"
     />
 <path 
     style="fill:currentColor;fill-opacity:0.5;stroke:none" 
     d="M 4 3 L 4 10 L 11 10 L 11 3 L 4 3 z M 12 3 L 12 9.2929688 L 18.292969 3 L 12 3 z M 19 3.7070312 L 12.707031 10 L 19 10 L 19 3.7070312 z M 4 11 L 4 17.292969 L 10.292969 11 L 4 11 z M 12 11 L 12 18 L 19 18 L 19 11 L 12 11 z M 11 11.707031 L 4.7070312 18 L 11 18 L 11 11.707031 z "
     class="ColorScheme-Text"
     />
 <path 
     style="fill:currentColor;fill-opacity:1.0;stroke:none" 
     d="M 19.292969 2 L 3 18.292969 L 3 19 L 3.7070312 19 L 20 2.7070312 L 20 2 L 19.292969 2 z "
     class="ColorScheme-Text"
     />
</svg>
